images/gladius.svg

<svg height="250" viewBox="0 0 250 250" width="250" xmlns="http://www.w3.org/2000/svg"><path d="m201.234375 43.335938c-23.644531-8.8125-49.210937-13.609376-75.910156-13.609376s-52.265625 4.796876-75.910157 13.609376c-10.949218 4.058593-21.464843 8.945312-31.496093 14.660156 1.480469 11.605468 3.835937 22.945312 7.066406 33.941406 9.335937-6.019531 19.28125-11.257812 29.664063-15.53125 21.769531-8.988281 45.632812-13.960938 70.675781-13.960938 25.039062 0 48.90625 4.972657 70.675781 13.960938 10.382812 4.273438 20.328125 9.511719 29.664062 15.53125 3.226563-10.996094 5.585938-22.335938 7.066407-33.941406-10.03125-5.714844-20.546875-10.601563-31.496094-14.660156" fill="#0a2052"/><path d="m187.753906 101.359375h-.042968c-13.089844 31.890625-34.859376 59.375-62.386719 79.398437-27.527344-20.023437-49.296875-47.507812-62.386719-79.398437h-.042969c-2.792969 1.003906-5.539062 2.050781-8.246093 3.183594-7.414063 3.054687-14.570313 6.589843-21.464844 10.558593 13.65625 32.632813 35.078125 61.253907 61.90625 83.542969 9.425781 7.855469 19.546875 14.921875 30.234375 21.074219 10.6875-6.152344 20.808593-13.21875 30.230469-21.074219 26.832031-22.289062 48.253906-50.910156 61.90625-83.542969-6.890626-3.96875-14.046876-7.503906-21.464844-10.558593-2.703125-1.132813-5.449219-2.179688-8.242188-3.183594" fill="#31c8c4"/></svg>

<svg xmlns="http://www.w3.org/2000/svg" xmlns:xlink="http://www.w3.org/1999/xlink" width="250px" height="250px" viewBox="0 0 250 250" version="1.1">
<g id="surface1">
<path style=" stroke:none;fill-rule:nonzero;fill:rgb(3.921569%,12.54902%,32.156864%);fill-opacity:1;" d="M 201.234375 43.335938 C 177.589844 34.523438 152.023438 29.726562 125.324219 29.726562 C 98.625 29.726562 73.058594 34.523438 49.414062 43.335938 C 38.464844 47.394531 27.949219 52.28125 17.917969 57.996094 C 19.398438 69.601562 21.753906 80.941406 24.984375 91.9375 C 34.320312 85.917969 44.265625 80.679688 54.648438 76.40625 C 76.417969 67.417969 100.28125 62.445312 125.324219 62.445312 C 150.363281 62.445312 174.230469 67.417969 196 76.40625 C 206.382812 80.679688 216.328125 85.917969 225.664062 91.9375 C 228.890625 80.941406 231.25 69.601562 232.730469 57.996094 C 222.699219 52.28125 212.183594 47.394531 201.234375 43.335938 "/>
<path style=" stroke:none;fill-rule:nonzero;fill:rgb(19.215687%,78.431374%,76.862746%);fill-opacity:1;" d="M 187.753906 101.359375 L 187.710938 101.359375 C 174.621094 133.25 152.851562 160.734375 125.324219 180.757812 C 97.796875 160.734375 76.027344 133.25 62.9375 101.359375 L 62.894531 101.359375 C 60.101562 102.363281 57.355469 103.410156 54.648438 104.542969 C 47.234375 107.597656 40.078125 111.132812 33.183594 115.101562 C 46.839844 147.734375 68.261719 176.355469 95.089844 198.644531 C 104.515625 206.5 114.636719 213.566406 125.324219 219.71875 C 136.011719 213.566406 146.132812 206.5 155.554688 198.644531 C 182.386719 176.355469 203.808594 147.734375 217.460938 115.101562 C 210.570312 111.132812 203.414062 107.597656 195.996094 104.542969 C 193.292969 103.410156 190.546875 102.363281 187.753906 101.359375 "/>
</g>
</svg>
